X:1
T:Title
L:1/8
M:12/8
K:C
V:1 treble nm="Grand Piano"
V:1
 z6 z3[Q:1/4=140] E2 F | G2 G G2 A A2 G- G3- | G3 E2 F G2 F E2 D | ^C6- C3 D2 E | %4
 F2 F F2 G G2 F- F3- | F3 D2 E F2 A G2 ^F | G3 E2 F G2 G G2 A | A2 G- G6 E2 F | G2 A _B2 c A6- | %9
 A3 A2 B c2 c _B2 ^G | ^G2 =G- G3- G6 | G2 G G2 D d3 B3 | c12- | c3 E2 E F2 F G2 G | A6 A6- | %15
 A3 A2 B c2 c B2 A | G12- | G3 c2 c c2 E E2 F | G6 G6- | G3 D2 B A2 G G2 ^F | G12- | %21
 G3 E2 E F2 F G2 G | A6 A6- | A3 A2 B c2 c B2 A | G12- | G3 c2 c c2 E E2 F | G6 G6- | %27
 G3 D2 E F2 G A2 B | c6- c3 z3 |] %29

